X: 2
T:Evit Gabriel
R:reel
Z:transcribed to ABC by Debby Knight
M:C|
L:1/8
K:Em
"Em"EFGF EFGF | EFGA B2AB |"Am"cBAG F2GA |"B7"BAGB F4 |
"Em"EFGF EFGF | EFGA B2AB | "Am"cBAG "B7"FBGF | "Em"EG"B7"FD "Em"E4 :|
|: "Am"eAAe "D"dcBc | "G"dGGd "C"cBAG | "F#m"FGAc "B"BAGF | "Em"GFGA "E7"B2cd |
"Am"eAAe "D"dcBc | "G"dGGd "C"cBAG | "F#m"FGAc "B"BAGF|
["Normal" "Em"GA"B7"FG "Em"E4 :|["Trans"!<(!"No Chord" B4!<)!z4|| 

#include "RightHeader.h"
%%footer 04/03/16 For use only by Roaring Jelly members
%%text Set 128 2016 NEFFA Québec continued
%%scale .85
$SmallLMargin
$SmallRMargin
